material/.icons/material/google-fit.svg

<svg xmlns="http://www.w3.org/2000/svg" viewBox="0 0 24 24"><path d="M17 4a5 5 0 015 5c0 1.38-.56 2.63-1.46 3.54L12 21.07l-8.54-8.53C2.56 11.63 2 10.38 2 9a5 5 0 015-5c1.38 0 2.63.56 3.54 1.46L12 6.93l1.46-1.47C14.37 4.56 15.62 4 17 4m-1.41 3.59L9.17 14 12 16.83l6.41-6.42c.37-.36.59-.86.59-1.41a2 2 0 00-2-2c-.55 0-1.05.22-1.41.59m-7.18 0C8.05 7.22 7.55 7 7 7a2 2 0 00-2 2c0 .55.22 1.05.59 1.41l1.46 1.47 2.83-2.83-1.47-1.46z"/></svg>

<?xml version="1.0" encoding="UTF-8"?><!DOCTYPE svg PUBLIC "-//W3C//DTD SVG 1.1//EN" "http://www.w3.org/Graphics/SVG/1.1/DTD/svg11.dtd"><svg xmlns="http://www.w3.org/2000/svg" xmlns:xlink="http://www.w3.org/1999/xlink" version="1.1" id="mdi-google-fit" width="24" height="24" viewBox="0 0 24 24"><path d="M17,4A5,5 0 0,1 22,9C22,10.38 21.44,11.63 20.54,12.54L12,21.07L3.46,12.54C2.56,11.63 2,10.38 2,9A5,5 0 0,1 7,4C8.38,4 9.63,4.56 10.54,5.46L12,6.93L13.46,5.46C14.37,4.56 15.62,4 17,4M15.59,7.59L9.17,14L12,16.83L18.41,10.41C18.78,10.05 19,9.55 19,9A2,2 0 0,0 17,7C16.45,7 15.95,7.22 15.59,7.59M8.41,7.59C8.05,7.22 7.55,7 7,7A2,2 0 0,0 5,9C5,9.55 5.22,10.05 5.59,10.41L7.05,11.88L9.88,9.05L8.41,7.59Z" /></svg>
